Branding/Wordmark/wordmark-dark.svg

<svg xmlns="http://www.w3.org/2000/svg" xml:space="preserve" fill-rule="evenodd" stroke-linejoin="round" stroke-miterlimit="1.5" clip-rule="evenodd" viewBox="0 0 540 100"><path fill="none" d="M0 0h539.95v100H0z"/><clipPath id="a"><path d="M0 0h539.95v100H0z"/></clipPath><g clip-path="url(#a)"><path fill="#fff" fill-rule="nonzero" d="M177.072 30.521c5.729 0 10.266 1.764 13.612 5.291 3.347 3.528 5.02 8.82 5.02 15.875v27.68h-10.635V53.135c0-4.222-.879-7.403-2.637-9.543-1.758-2.141-4.282-3.212-7.572-3.212-3.573 0-6.437 1.252-8.593 3.754-2.155 2.503-3.232 6.076-3.232 10.719v24.514H152.4V53.135c0-4.222-.879-7.403-2.637-9.543-1.759-2.141-4.283-3.212-7.572-3.212-3.63 0-6.508 1.237-8.635 3.709s-3.191 6.061-3.191 10.764v24.514h-10.634V31.063h10.124v6.151c1.701-2.171 3.828-3.829 6.381-4.975 2.552-1.145 5.388-1.718 8.507-1.718 3.403 0 6.423.678 9.061 2.035 2.637 1.357 4.721 3.362 6.253 6.015 1.872-2.533 4.282-4.507 7.231-5.925 2.95-1.417 6.211-2.125 9.784-2.125ZM229.904 80c-4.594 0-8.734-1.055-12.421-3.166-3.686-2.111-6.565-5.05-8.635-8.819-2.07-3.769-3.105-8.036-3.105-12.8 0-4.764 1.035-9.015 3.105-12.754 2.07-3.739 4.949-6.664 8.635-8.774 3.687-2.111 7.827-3.166 12.421-3.166 4.651 0 8.82 1.055 12.507 3.166 3.686 2.11 6.565 5.035 8.635 8.774 2.07 3.739 3.105 7.99 3.105 12.754 0 4.764-1.035 9.031-3.105 12.8-2.07 3.769-4.949 6.708-8.635 8.819-3.687 2.111-7.856 3.166-12.507 3.166Zm0-9.679c3.914 0 7.147-1.387 9.699-4.161 2.552-2.774 3.828-6.422 3.828-10.945 0-4.523-1.276-8.171-3.828-10.945-2.552-2.774-5.785-4.161-9.699-4.161-3.913 0-7.132 1.387-9.656 4.161-2.524 2.774-3.786 6.422-3.786 10.945 0 4.523 1.262 8.171 3.786 10.945 2.524 2.774 5.743 4.161 9.656 4.161ZM308.6 12.249v67.118h-10.209v-6.242c-1.759 2.292-3.928 4.011-6.509 5.156-2.58 1.146-5.43 1.719-8.55 1.719-4.367 0-8.295-1.025-11.783-3.075-3.488-2.051-6.225-4.96-8.21-8.729-1.985-3.769-2.977-8.096-2.977-12.981s.992-9.196 2.977-12.935c1.985-3.739 4.722-6.634 8.21-8.684 3.488-2.05 7.416-3.075 11.783-3.075 3.006 0 5.757.542 8.253 1.628 2.495 1.085 4.622 2.714 6.38 4.884V12.249H308.6Zm-23.992 58.072c2.553 0 4.85-.618 6.891-1.854 2.042-1.236 3.659-3 4.85-5.292 1.191-2.291 1.786-4.945 1.786-7.96 0-3.015-.595-5.668-1.786-7.96s-2.808-4.055-4.85-5.292c-2.041-1.236-4.338-1.854-6.891-1.854-2.552 0-4.849.618-6.891 1.854-2.042 1.237-3.658 3-4.849 5.292-1.191 2.292-1.787 4.945-1.787 7.96 0 3.015.596 5.669 1.787 7.96 1.191 2.292 2.807 4.056 4.849 5.292 2.042 1.236 4.339 1.854 6.891 1.854Zm47.813-32.202c3.063-5.066 8.451-7.598 16.165-7.598v10.764c-.908-.181-1.73-.271-2.468-.271-4.14 0-7.373 1.281-9.698 3.844-2.326 2.563-3.488 6.256-3.488 11.081v23.428h-10.635V31.063h10.124v7.056Zm24.927-7.056h10.635v48.304h-10.635V31.063Zm5.36-7.96c-1.928 0-3.545-.648-4.849-1.945-1.305-1.296-1.957-2.909-1.957-4.839 0-1.93.652-3.543 1.957-4.839 1.304-1.297 2.921-1.945 4.849-1.945 1.929 0 3.545.618 4.85 1.854 1.304 1.236 1.956 2.789 1.956 4.659 0 1.99-.638 3.663-1.914 5.02-1.276 1.357-2.907 2.035-4.892 2.035Zm44.75 7.418c5.729 0 10.323 1.779 13.783 5.337 3.459 3.557 5.189 8.834 5.189 15.829v27.68h-10.634V53.135c0-4.222-.936-7.403-2.808-9.543-1.871-2.141-4.537-3.212-7.997-3.212-3.913 0-7.005 1.252-9.273 3.754-2.269 2.503-3.403 6.106-3.403 10.81v24.423H381.68V31.063h10.124v6.242c1.759-2.231 3.97-3.92 6.636-5.066 2.666-1.145 5.672-1.718 9.018-1.718Zm59.554 46.223c-1.248 1.085-2.765 1.899-4.552 2.442-1.787.543-3.672.814-5.658.814-4.991 0-8.847-1.387-11.57-4.161-2.722-2.774-4.084-6.814-4.084-12.121V40.471h-7.486v-9.046h7.486V20.39h10.635v11.035h12.166v9.046h-12.166v22.976c0 2.351.539 4.145 1.616 5.382 1.078 1.236 2.638 1.854 4.68 1.854 2.382 0 4.367-.663 5.955-1.99l2.978 8.051Zm34.285-46.223c5.729 0 10.323 1.779 13.783 5.337 3.459 3.557 5.189 8.834 5.189 15.829v27.68h-10.634V53.135c0-4.222-.936-7.403-2.808-9.543-1.871-2.141-4.537-3.212-7.997-3.212-3.913 0-7.005 1.252-9.273 3.754-2.269 2.503-3.403 6.106-3.403 10.81v24.423h-10.635V12.249h10.635v24.423c1.758-1.99 3.927-3.513 6.508-4.568 2.581-1.056 5.459-1.583 8.635-1.583Z"/><clipPath id="b"><path d="M101.428-1.047H-1.018v102.481h102.446V-1.047ZM46.17 49.482l.077 1.773 8.911 33.27 7.917-2.122-8.677-32.392 5.859-33.238-8.071-1.423-6.016 34.132Z"/></clipPath><g clip-path="url(#b)"><path fill="#00d845" d="M50.205 16.887c18.376 0 33.295 14.924 33.295 33.306C83.5 68.576 68.581 83.5 50.205 83.5S16.91 68.576 16.91 50.193c0-18.382 14.919-33.306 33.295-33.306Zm0 8.449c13.714 0 24.846 11.139 24.846 24.857 0 13.719-11.132 24.858-24.846 24.858-13.713 0-24.845-11.139-24.845-24.858 0-13.718 11.132-24.857 24.845-24.857Z"/></g><clipPath id="c"><path d="M0 0v46h50l1.368.241L99 63.578l-2.736 7.517L49.295 54H0v46h100V0H0Z"/></clipPath><g clip-path="url(#c)"><path fill="#00d845" d="M50 0c27.596 0 50 22.404 50 50s-22.404 50-50 50S0 77.596 0 50 22.404 0 50 0Zm0 8.5c22.904 0 41.5 18.596 41.5 41.5S72.904 91.5 50 91.5 8.5 72.904 8.5 50 27.096 8.5 50 8.5Z"/></g><clipPath id="d"><path d="M50 0c27.596 0 50 22.404 50 50s-22.404 50-50 50S0 77.596 0 50 22.404 0 50 0Zm0 39.549c5.768 0 10.451 4.683 10.451 10.451 0 5.768-4.683 10.451-10.451 10.451-5.768 0-10.451-4.683-10.451-10.451 0-5.768 4.683-10.451 10.451-10.451Z"/></clipPath><g clip-path="url(#d)"><path fill="none" stroke="#00d845" stroke-width="8" d="M50 50 5.171 75.882"/></g><path fill="#00d845" d="M37.243 52.746 35 45l8-9 11-3 4 4-6 6-4 1-3 4 1.12 4.24 3.112 3.09 4.964-.598 2.866-2.964 8.196-2.196 1.464 5.464-8.098 8.026L46.83 65.49l-5.587-5.815-4-6.929Z"/></g></svg>

<?xml version="1.0" encoding="UTF-8" standalone="no"?>
<!DOCTYPE svg PUBLIC "-//W3C//DTD SVG 1.1//EN" "http://www.w3.org/Graphics/SVG/1.1/DTD/svg11.dtd">
<svg width="100%" height="100%" viewBox="0 0 540 101" version="1.1" xmlns="http://www.w3.org/2000/svg" xmlns:xlink="http://www.w3.org/1999/xlink" xml:space="preserve" xmlns:serif="http://www.serif.com/" style="fill-rule:evenodd;clip-rule:evenodd;stroke-linejoin:round;stroke-miterlimit:1.5;">
    <rect id="Wordmark-wordmark-dark" serif:id="Wordmark/wordmark-dark" x="0" y="0.077" width="539.95" height="100" style="fill:none;"/>
    <clipPath id="_clip1">
        <rect x="0" y="0.077" width="539.95" height="100"/>
    </clipPath>
    <g clip-path="url(#_clip1)">
        <g id="Wordmark">
            <g id="Word">
                <path d="M177.072,30.598C182.801,30.598 187.338,32.361 190.684,35.889C194.031,39.417 195.704,44.709 195.704,51.764L195.704,79.444L185.069,79.444L185.069,53.212C185.069,48.99 184.19,45.809 182.432,43.668C180.674,41.528 178.15,40.457 174.86,40.457C171.287,40.457 168.423,41.709 166.267,44.211C164.112,46.714 163.035,50.287 163.035,54.93L163.035,79.444L152.4,79.444L152.4,53.212C152.4,48.99 151.521,45.809 149.763,43.668C148.004,41.528 145.48,40.457 142.191,40.457C138.561,40.457 135.683,41.693 133.556,44.166C131.429,46.638 130.365,50.226 130.365,54.93L130.365,79.444L119.731,79.444L119.731,31.14L129.855,31.14L129.855,37.291C131.556,35.12 133.683,33.462 136.236,32.316C138.788,31.17 141.624,30.598 144.743,30.598C148.146,30.598 151.166,31.276 153.804,32.633C156.441,33.99 158.525,35.995 160.057,38.648C161.929,36.115 164.339,34.14 167.288,32.723C170.238,31.306 173.499,30.598 177.072,30.598Z" style="fill:#fff;fill-rule:nonzero;"/>
                <path d="M229.904,80.077C225.31,80.077 221.17,79.022 217.483,76.911C213.797,74.8 210.918,71.861 208.848,68.092C206.778,64.323 205.743,60.056 205.743,55.292C205.743,50.528 206.778,46.277 208.848,42.538C210.918,38.799 213.797,35.874 217.483,33.764C221.17,31.653 225.31,30.598 229.904,30.598C234.555,30.598 238.724,31.653 242.411,33.764C246.097,35.874 248.976,38.799 251.046,42.538C253.116,46.277 254.151,50.528 254.151,55.292C254.151,60.056 253.116,64.323 251.046,68.092C248.976,71.861 246.097,74.8 242.411,76.911C238.724,79.022 234.555,80.077 229.904,80.077ZM229.904,70.398C233.818,70.398 237.051,69.011 239.603,66.237C242.155,63.463 243.431,59.815 243.431,55.292C243.431,50.769 242.155,47.121 239.603,44.347C237.051,41.573 233.818,40.186 229.904,40.186C225.991,40.186 222.772,41.573 220.248,44.347C217.724,47.121 216.462,50.769 216.462,55.292C216.462,59.815 217.724,63.463 220.248,66.237C222.772,69.011 225.991,70.398 229.904,70.398Z" style="fill:#fff;fill-rule:nonzero;"/>
                <path d="M308.6,12.325L308.6,79.444L298.391,79.444L298.391,73.202C296.632,75.494 294.463,77.212 291.882,78.358C289.302,79.504 286.452,80.077 283.332,80.077C278.965,80.077 275.037,79.052 271.549,77.001C268.061,74.951 265.324,72.041 263.339,68.272C261.354,64.503 260.362,60.177 260.362,55.292C260.362,50.407 261.354,46.096 263.339,42.357C265.324,38.618 268.061,35.723 271.549,33.673C275.037,31.623 278.965,30.598 283.332,30.598C286.338,30.598 289.089,31.14 291.585,32.226C294.08,33.311 296.207,34.939 297.965,37.11L297.965,12.325L308.6,12.325ZM284.608,70.398C287.161,70.398 289.458,69.78 291.499,68.544C293.541,67.308 295.158,65.544 296.349,63.252C297.54,60.961 298.135,58.307 298.135,55.292C298.135,52.277 297.54,49.623 296.349,47.332C295.158,45.04 293.541,43.276 291.499,42.04C289.458,40.804 287.161,40.186 284.608,40.186C282.056,40.186 279.759,40.804 277.717,42.04C275.675,43.276 274.059,45.04 272.868,47.332C271.677,49.623 271.081,52.277 271.081,55.292C271.081,58.307 271.677,60.961 272.868,63.252C274.059,65.544 275.675,67.308 277.717,68.544C279.759,69.78 282.056,70.398 284.608,70.398Z" style="fill:#fff;fill-rule:nonzero;"/>
                <path d="M332.421,38.196C335.484,33.13 340.872,30.598 348.586,30.598L348.586,41.362C347.678,41.181 346.856,41.09 346.118,41.09C341.978,41.09 338.745,42.372 336.42,44.935C334.094,47.498 332.932,51.191 332.932,56.016L332.932,79.444L322.297,79.444L322.297,31.14L332.421,31.14L332.421,38.196Z" style="fill:#fff;fill-rule:nonzero;"/>
                <path d="M357.348,31.14L367.983,31.14L367.983,79.444L357.348,79.444L357.348,31.14ZM362.708,23.18C360.78,23.18 359.163,22.532 357.859,21.235C356.554,19.939 355.902,18.326 355.902,16.396C355.902,14.466 356.554,12.853 357.859,11.557C359.163,10.26 360.78,9.612 362.708,9.612C364.637,9.612 366.253,10.23 367.558,11.466C368.862,12.702 369.514,14.255 369.514,16.125C369.514,18.115 368.876,19.788 367.6,21.145C366.324,22.502 364.693,23.18 362.708,23.18Z" style="fill:#fff;fill-rule:nonzero;"/>
                <path d="M407.458,30.598C413.187,30.598 417.781,32.377 421.241,35.934C424.7,39.492 426.43,44.769 426.43,51.764L426.43,79.444L415.796,79.444L415.796,53.212C415.796,48.99 414.86,45.809 412.988,43.668C411.117,41.528 408.451,40.457 404.991,40.457C401.078,40.457 397.986,41.709 395.718,44.211C393.449,46.714 392.315,50.317 392.315,55.021L392.315,79.444L381.68,79.444L381.68,31.14L391.804,31.14L391.804,37.382C393.563,35.151 395.774,33.462 398.44,32.316C401.106,31.17 404.112,30.598 407.458,30.598Z" style="fill:#fff;fill-rule:nonzero;"/>
                <path d="M467.012,76.821C465.764,77.906 464.247,78.72 462.46,79.263C460.673,79.806 458.788,80.077 456.802,80.077C451.811,80.077 447.955,78.69 445.232,75.916C442.51,73.142 441.148,69.102 441.148,63.795L441.148,40.548L433.662,40.548L433.662,31.502L441.148,31.502L441.148,20.467L451.783,20.467L451.783,31.502L463.949,31.502L463.949,40.548L451.783,40.548L451.783,63.524C451.783,65.875 452.322,67.669 453.399,68.906C454.477,70.142 456.037,70.76 458.079,70.76C460.461,70.76 462.446,70.097 464.034,68.77L467.012,76.821Z" style="fill:#fff;fill-rule:nonzero;"/>
                <path d="M501.297,30.598C507.026,30.598 511.62,32.377 515.08,35.934C518.539,39.492 520.269,44.769 520.269,51.764L520.269,79.444L509.635,79.444L509.635,53.212C509.635,48.99 508.699,45.809 506.827,43.668C504.956,41.528 502.29,40.457 498.83,40.457C494.917,40.457 491.825,41.709 489.557,44.211C487.288,46.714 486.154,50.317 486.154,55.021L486.154,79.444L475.519,79.444L475.519,12.325L486.154,12.325L486.154,36.749C487.912,34.759 490.081,33.236 492.662,32.181C495.243,31.125 498.121,30.598 501.297,30.598Z" style="fill:#fff;fill-rule:nonzero;"/>
            </g>
            <g id="Mark">
                <clipPath id="_clip2">
                    <path d="M101.538,-1.462L-1.538,-1.462L-1.538,101.615L101.538,101.615L101.538,-1.462ZM45.94,49.361L46.017,51.144L54.984,84.608L62.949,82.473L54.219,49.893L60.114,16.463L51.993,15.031L45.94,49.361Z"/>
                </clipPath>
                <g clip-path="url(#_clip2)">
                    <path d="M50,16.577C68.489,16.577 83.5,31.588 83.5,50.077C83.5,68.566 68.489,83.577 50,83.577C31.511,83.577 16.5,68.566 16.5,50.077C16.5,31.588 31.511,16.577 50,16.577ZM50,25.077C63.798,25.077 75,36.279 75,50.077C75,63.875 63.798,75.077 50,75.077C36.202,75.077 25,63.875 25,50.077C25,36.279 36.202,25.077 50,25.077Z" style="fill:#00d845;"/>
                </g>
                <clipPath id="_clip3">
                    <path d="M0,0.077L0,46.077L50,46.077L51.368,46.318L99,63.655L96.264,71.172L49.295,54.077L0,54.077L0,100.077L100,100.077L100,0.077L0,0.077Z"/>
                </clipPath>
                <g clip-path="url(#_clip3)">
                    <path d="M50,0.077C77.596,0.077 100,22.481 100,50.077C100,77.673 77.596,100.077 50,100.077C22.404,100.077 0,77.673 0,50.077C0,22.481 22.404,0.077 50,0.077ZM50,8.577C72.904,8.577 91.5,27.172 91.5,50.077C91.5,72.981 72.904,91.577 50,91.577C27.096,91.577 8.5,72.981 8.5,50.077C8.5,27.172 27.096,8.577 50,8.577Z" style="fill:#00d845;"/>
                </g>
                <clipPath id="_clip4">
                    <path d="M50,0.077C77.596,0.077 100,22.481 100,50.077C100,77.673 77.596,100.077 50,100.077C22.404,100.077 -0,77.673 -0,50.077C-0,22.481 22.404,0.077 50,0.077ZM50,39.626C55.768,39.626 60.451,44.309 60.451,50.077C60.451,55.845 55.768,60.528 50,60.528C44.232,60.528 39.549,55.845 39.549,50.077C39.549,44.309 44.232,39.626 50,39.626Z"/>
                </clipPath>
                <g clip-path="url(#_clip4)">
                    <path d="M50,50.077L5.171,75.959" style="fill:none;stroke:#00d845;stroke-width:8px;"/>
                </g>
                <clipPath id="_clip5">
                    <path d="M50,0.077C77.596,0.077 100,22.481 100,50.077C100,77.673 77.596,100.077 50,100.077C22.404,100.077 0,77.673 0,50.077C0,22.481 22.404,0.077 50,0.077ZM50,25.077C63.798,25.077 75,36.279 75,50.077C75,63.875 63.798,75.077 50,75.077C36.202,75.077 25,63.875 25,50.077C25,36.279 36.202,25.077 50,25.077Z"/>
                </clipPath>
                <g clip-path="url(#_clip5)">
                    <path d="M50,50.077L100,36.679" style="fill:none;stroke:#00d845;stroke-width:8px;"/>
                </g>
                <path d="M37.243,52.823L35,45.077L43,36.077L54,33.077L58,37.077L52,43.077L48,44.077L45,48.077L46.12,52.317L49.232,55.407L54.196,54.809L57.062,51.845L65.258,49.649L66.722,55.113L58.624,63.139L46.83,65.567L41.243,59.752L37.243,52.823Z" style="fill:#00d845;"/>
            </g>
        </g>
    </g>
</svg>
